X:142
T:AIR XVIII. Peggy, I must love thee.
O:england
B:Joseph Mitchell: "The Highland Fair" (1731)
M:C|
L:1/8
K:G
D|E2G2 G3B|(AB)(AG) E3D| E2 G2 (GA)(Bc)|  A4      G3
D|E2G2 G3B|(cB)(AG) E3D| E2 G2 (GA)(Bc)|  A4      G3
G|B2d2 d3e|(ed)(cB) A3G| B2 d2  d3   e |(=fe)(fg) e3
d|e2g2 d3e| B2  g2  A3G|(DE)G2 (GA)(Bc)|  A4      G3|]


